picto/people-with-limited-mobility-pregnant.svg

<svg class="color-immutable" width="24" height="24" viewBox="0 0 24 24" fill="none" xmlns="http://www.w3.org/2000/svg"><path d="M0 22.5V1.5C0 0.675 0.675 0 1.5 0H22.5C23.325 0 24 0.675 24 1.5V22.5C24 23.325 23.325 24 22.5 24H1.5C0.675 24 0 23.325 0 22.5Z" fill="#2D327D"/><path d="M15.699 6.30401C15.699 7.13201 15.027 7.80301 14.198 7.80301C13.37 7.80301 12.699 7.13201 12.699 6.30401C12.699 5.47501 13.37 4.80301 14.198 4.80301C15.027 4.80201 15.699 5.47401 15.699 6.30401Z" fill="white"/><path d="M19.131 8.26H12.949C12.517 8.234 12.086 8.441 11.844 8.836L10.693 10.708C10.492 11.036 10.28 11.385 10.059 11.747L9.62704 12.453C8.48204 14.331 9.08504 15.868 10.972 15.868C11.098 15.868 14.402 15.868 14.402 15.868L14.974 18.289H14.97C14.974 18.302 14.976 18.315 14.98 18.327C14.985 18.34 14.988 18.353 14.991 18.365L15.49 20.474C15.607 20.799 15.928 21.011 16.279 20.979C16.701 20.941 17.013 20.566 16.975 20.144C16.973 20.131 16.97 20.116 16.968 20.102L15.756 15.011C15.659 14.656 15.29 14.38 14.925 14.379H14.088H14.086H11.988L14.969 9.467H19.132C19.467 9.467 19.736 9.198 19.736 8.863C19.735 8.53 19.466 8.26 19.131 8.26Z" fill="white"/><path d="M19.5251 10.071H18.7191V20.961H19.5251V10.071Z" fill="white"/><path d="M13.103 16.587H8.79903V16.59H7.93003C7.78203 16.59 7.62703 16.472 7.58903 16.327L5.09203 6.95701C5.08703 6.93901 5.08003 6.91801 5.07103 6.89601L5.01703 6.69201C4.96303 6.48801 4.75203 6.36601 4.54903 6.42001C4.34503 6.47501 4.22303 6.68501 4.27803 6.88901L6.45103 15.05C6.45403 15.05 6.45403 15.05 6.45403 15.05L7.00003 17.095C7.03803 17.239 7.19303 17.357 7.34103 17.357H12.836C12.849 17.357 12.866 17.355 12.88 17.354H13.103C13.315 17.354 13.486 17.183 13.486 16.972C13.485 16.759 13.315 16.587 13.103 16.587Z" fill="white"/></svg>

<svg class="color-immutable" width="24" height="24" viewBox="0 0 24 24" fill="none" xmlns="http://www.w3.org/2000/svg"><g clip-path="url(#a)"><path d="M0 22.5v-21C0 .675.675 0 1.5 0h21c.825 0 1.5.675 1.5 1.5v21c0 .825-.675 1.5-1.5 1.5h-21C.675 24 0 23.325 0 22.5Z" fill="#2D327D"/><path d="M15.699 6.304a1.5 1.5 0 1 1-3-.002 1.5 1.5 0 0 1 3 .002ZM19.131 8.26h-6.182a1.209 1.209 0 0 0-1.105.576l-1.151 1.872-.634 1.039-.432.706c-1.145 1.878-.542 3.415 1.345 3.415h3.43l.572 2.421h-.004l.01.038c.005.013.008.026.011.038l.499 2.109a.765.765 0 0 0 1.485-.33l-.007-.042-1.212-5.091a.902.902 0 0 0-.831-.632h-2.937l2.981-4.912h4.163a.604.604 0 1 0-.001-1.207Z" fill="#fff"/><path d="M19.525 10.071h-.806v10.89h.806v-10.89ZM13.103 16.587H8.799v.003H7.93a.374.374 0 0 1-.341-.263l-2.497-9.37a.558.558 0 0 0-.021-.061l-.054-.204a.383.383 0 1 0-.739.197l2.173 8.161h.003L7 17.095a.374.374 0 0 0 .341.262h5.495l.044-.003h.223a.384.384 0 0 0 0-.767Z" fill="#fff"/></g><defs><clipPath id="a"><path fill="#fff" d="M0 0h24v24H0z"/></clipPath></defs></svg>
